; generated by Slic3r 1.2.9 on 2018-04-27 at 17:21:04

; external perimeters extrusion width = 0.35mm
; perimeters extrusion width = 0.33mm
; infill extrusion width = 0.50mm
; solid infill extrusion width = 0.38mm
; top infill extrusion width = 0.22mm

M107
;This profile is designed specifically for LulzBot TAZ 6 3D Printer
;Basic slice data:
;Sliced at: {day} {date} {time}
;Layer height: {layer_height}
;Walls: {wall_thickness}
;Fill: {fill_density}
;Estimated Print time: {print_time}
;Filament used: {filament_amount}m {filament_weight}g
;Filament cost: {filament_cost}
;Variables to replace: print_bed_temperature, print_temperature, clean_temperature
G26                          ; clear potential 'probe fail' condition
G21                          ; set units to Millimeters
M107                         ; disable fans
G90                          ; absolute positioning
M82                          ; set extruder to absolute mode
G92 E0                       ; set extruder position to 0
M140 S85					 ; get bed heating up
G28 XY                       ; home X and Y
G1 X-19 Y258 F1000           ; move to safe homing position
M109 S161    				 ; soften filament for z homing, 70% of extrusion temperature is fine. default=170. 
G28 Z                        ; home Z
M104 S161    				 ; wipe temp, 70% of extrusion temperature is fine. default=160
G1 E-30 F100                 ; suck up XXmm of filament
G1 X-15 Y100 F3000           ; move above wiper pad
G1 Z1                        ; push nozzle into wiper
G1 X-17 Y95 F1000            ; slow wipe
G1 X-17 Y90 F1000            ; slow wipe
G1 X-17 Y85 F1000            ; slow wipe
G1 X-15 Y90 F1000            ; slow wipe
G1 X-17 Y80 F1000            ; slow wipe
G1 X-15 Y95 F1000            ; slow wipe
G1 X-17 Y75 F2000            ; fast wipe
G1 X-15 Y65 F2000            ; fast wipe
G1 X-17 Y70 F2000            ; fast wipe
G1 X-15 Y60 F2000            ; fast wipe
G1 X-17 Y55 F2000            ; fast wipe
G1 X-15 Y50 F2000            ; fast wipe
G1 X-17 Y40 F2000            ; fast wipe
G1 X-15 Y45 F2000            ; fast wipe
G1 X-17 Y35 F2000            ; fast wipe
G1 X-15 Y40 F2000            ; fast wipe
G1 X-17 Y70 F2000            ; fast wipe
G1 X-15 Y30 Z2 F2000         ; fast wipe
G1 X-17 Y35 F2000            ; fast wipe
G1 X-15 Y25 F2000            ; fast wipe
G1 X-17 Y30 F2000            ; fast wipe
G1 X-15 Y25 Z1.5 F1000       ; slow wipe
G1 X-17 Y23 F1000            ; slow wipe
G1 Z10                       ; raise extruder
M109 S161				     ; heat to probe temp. probe temp is 70% of extrusion temperature (print_temperature). default=160
G1 X-9 Y-9                   ; move above probe
M204 S100                    ; set accel for probing
G29                          ; probe sequence (for auto-leveling)
M204 S500                    ; set accel back to normal
G1 X0 Y0 Z15 F5000           ; get out the way
M400                         ; clear buffer
G4 S1                        ; pause
M117 Heating...              ; LCD status message
M140 S85					 ; get bed heating up
M109 S230				     ; set extruder temp and wait
M190 S85					 ; get bed temping up during first layer
G1 Z2 E0 F75                 ; extrude filament back into nozzle
M117 TAZ Printing...         ; LCD status message
G21 ; set units to millimeters
G90 ; use absolute coordinates
M82 ; use absolute distances for extrusion
G92 E0
G1 E-2.00000 F1500.00000
G92 E0
G1 Z0.300 F10800.000
G1 X78.496 Y67.666 F10800.000
G1 E2.00000 F1500.00000
G1 X80.128 Y66.269 E2.04280 F1800.000
G1 X82.463 Y64.833 E2.09741
G1 X83.396 Y64.354 E2.11830
G1 X84.409 Y63.928 E2.14021
G1 X87.567 Y63.407 E2.20396
G1 X113.568 Y65.275 E2.72331
G1 X115.626 Y65.748 E2.76536 F1800.000
G1 X117.459 Y66.481 E2.80470
G1 X118.996 Y67.337 E2.83974
G1 X120.255 Y68.268 E2.87094
G1 X121.869 Y69.956 E2.91748
G1 X122.985 Y72.927 E2.98070
G1 X124.811 Y87.432 E3.27196
G1 X124.864 Y88.229 E3.28788
G1 X124.874 Y89.593 E3.31504
G1 X124.825 Y90.470 E3.33255
G1 X124.354 Y94.367 E3.41075
G1 X123.624 Y96.723 E3.45988
G1 X104.347 Y133.320 E4.28395
G1 X102.922 Y135.172 E4.33049
G1 X100.960 Y136.439 E4.37703
G1 X98.687 Y136.976 E4.42357
G1 X95.859 Y136.553 E4.48053
G1 X92.108 Y135.149 E4.56032
G1 X91.386 Y134.831 E4.57604
G1 X91.276 Y134.774 E4.57851
G1 X89.408 Y133.372 E4.62505
G1 X88.282 Y131.773 E4.66400
G1 X87.964 Y131.059 E4.67958
G1 X73.697 Y93.406 E5.48176
G1 X73.293 Y92.188 E5.50732
G1 X73.000 Y89.312 E5.56492
G1 X73.259 Y86.971 E5.61186
G1 X73.355 Y86.358 E5.62420
G1 X75.997 Y73.363 E5.88839
G1 X76.310 Y72.285 E5.91076
G1 X77.305 Y69.675 E5.96640
G1 X78.469 Y67.711 E6.01190
G1 X78.875 Y67.893 F10800.000
G1 X80.356 Y66.640 E6.05055 F1800.000
G1 X82.691 Y65.204 E6.10516
G1 X83.565 Y64.756 E6.12472
G1 X84.578 Y64.329 E6.14663
G1 X87.536 Y63.842 E6.20635
G1 X113.537 Y65.710 E6.72569
G1 X115.464 Y66.153 E6.76508 F1800.000
G1 X117.297 Y66.885 E6.80442
G1 X118.737 Y67.687 E6.83724
G1 X119.996 Y68.619 E6.86844
G1 X121.549 Y70.261 E6.91347
G1 X122.553 Y72.982 E6.97126
G1 X124.379 Y87.486 E7.26250
G1 X124.428 Y88.233 E7.27741
G1 X124.439 Y89.596 E7.30456
G1 X124.393 Y90.418 E7.32097
G1 X123.922 Y94.315 E7.39917
G1 X123.238 Y96.521 E7.44518
G1 X103.961 Y133.117 E8.26922
G1 X102.573 Y134.901 E8.31425
G1 X100.654 Y136.094 E8.35928
G1 X98.440 Y136.551 E8.40431
G1 X96.012 Y136.145 E8.45336
G1 X92.261 Y134.741 E8.53315
G1 X91.585 Y134.443 E8.54787
G1 X91.474 Y134.387 E8.55034
G1 X89.674 Y133.020 E8.59537
G1 X88.670 Y131.576 E8.63041
G1 X88.371 Y130.905 E8.64504
G1 X74.104 Y93.252 E9.44723
G1 X73.708 Y92.054 E9.47236
G1 X73.433 Y89.360 E9.52631
G1 X73.692 Y87.018 E9.57325
G1 X73.782 Y86.445 E9.58481
G1 X76.424 Y73.450 E9.84900
G1 X76.717 Y72.440 E9.86995
G1 X77.712 Y69.830 E9.92559
G1 X78.848 Y67.938 E9.96956
G1 E7.96956 F1500.00000
G92 E0
G1 X109.773 Y77.051 F10800.000
G1 E2.00000 F1500.00000
G1 X110.335 Y73.246 E2.07663 F900.000
G1 X111.569 Y72.960 E2.10185
G1 X112.976 Y72.827 E2.13000
G1 X114.573 Y73.465 E2.16427
G1 X115.482 Y74.138 E2.18680
G1 X115.480 Y74.890 E2.20180
G1 X116.385 Y80.942 E2.32370
G1 X117.307 Y88.329 E2.47201
G1 X117.317 Y89.608 E2.49749
G1 X116.885 Y93.191 E2.56940
G1 X111.798 Y95.360 E2.67957
G1 X109.111 Y97.395 E2.74671
G1 X106.924 Y103.808 E2.88171
G1 X106.320 Y104.774 E2.90440
G1 X105.586 Y107.935 E2.96906
G1 X104.029 Y113.935 E3.09255
G1 X102.505 Y118.115 E3.18120
G1 X101.814 Y119.287 E3.20829
G1 X98.827 Y126.951 E3.37216
G1 X97.886 Y129.243 E3.42153
G1 X94.978 Y128.155 E3.48338
G1 X91.220 Y113.296 E3.78872
G1 X90.488 Y108.612 E3.88317
G1 X90.043 Y103.699 E3.98145
G1 X87.025 Y96.003 E4.14615
G1 X86.434 Y94.192 E4.18409
G1 X85.556 Y94.028 E4.20188
G1 X80.705 Y90.546 E4.32085
G1 X80.527 Y89.998 E4.33234
G1 X80.765 Y87.851 E4.37536
G1 X83.199 Y78.451 E4.56881
G1 X83.084 Y77.071 E4.59640
G1 X83.398 Y74.906 E4.63998
G1 X84.283 Y72.585 E4.68947
G1 X86.375 Y71.299 E4.73839
G1 X87.145 Y70.975 E4.75503
G1 X87.385 Y71.024 E4.75992
G1 X89.609 Y72.090 E4.80904
G1 X89.614 Y75.110 E4.86920
G1 X89.522 Y75.725 E4.88160
G1 X91.646 Y76.497 E4.92661
G1 X92.016 Y76.235 E4.93564
G1 X92.820 Y76.021 E4.95223
G1 X95.167 Y76.127 E4.99903
G1 X100.967 Y76.023 E5.11460
G1 X103.307 Y76.179 E5.16133
G1 X105.498 Y76.515 E5.20549
G1 X107.492 Y77.119 E5.24698
G1 X107.759 Y77.349 E5.25400
G1 X109.721 Y77.059 E5.29352
G1 X109.389 Y76.667 F10800.000
G1 X109.948 Y72.889 E5.36961 F2400.000
G1 X111.499 Y72.529 E5.40133
G1 X113.039 Y72.383 E5.43216
G1 X114.787 Y73.082 E5.46965
G1 X115.918 Y73.918 E5.49769
G1 X115.916 Y74.859 E5.51642
G1 X116.817 Y80.882 E5.63777
G1 X117.743 Y88.300 E5.78669
G1 X117.753 Y89.632 E5.81324
G1 X117.287 Y93.493 E5.89072
G1 X112.018 Y95.739 E6.00482
G1 X109.480 Y97.661 E6.06825
G1 X107.320 Y103.996 E6.20159
G1 X106.728 Y104.943 E6.22384
G1 X106.009 Y108.039 E6.28715
G1 X104.445 Y114.064 E6.41117
G1 X102.900 Y118.302 E6.50104
G1 X102.208 Y119.478 E6.52823
G1 X99.232 Y127.112 E6.69147
G1 X98.128 Y129.799 E6.74932
G1 X94.611 Y128.483 E6.82413
G1 X90.792 Y113.383 E7.13442
G1 X90.056 Y108.665 E7.22955
G1 X89.614 Y103.800 E7.32687
G1 X86.615 Y96.150 E7.49059
G1 X86.100 Y94.573 E7.52364
G1 X85.381 Y94.439 E7.53821
G1 X80.335 Y90.816 E7.66196
G1 X80.084 Y90.043 E7.67816
G1 X80.335 Y87.772 E7.72367
G1 X82.758 Y78.413 E7.91628
G1 X82.646 Y77.057 E7.94338
G1 X82.974 Y74.795 E7.98891
G1 X83.929 Y72.291 E8.04231
G1 X86.175 Y70.910 E8.09484
G1 X87.100 Y70.521 E8.11483
G1 X87.525 Y70.609 E8.12348
G1 X90.044 Y71.815 E8.17912
G1 X90.050 Y75.142 E8.24539
G1 X90.006 Y75.437 E8.25134
G1 X91.580 Y76.010 E8.28472
G1 X91.828 Y75.834 E8.29077
G1 X92.773 Y75.583 E8.31025
G1 X95.173 Y75.691 E8.35812
G1 X100.978 Y75.587 E8.47377
G1 X103.355 Y75.745 E8.52124
G1 X105.595 Y76.089 E8.56639
G1 X107.706 Y76.729 E8.61034
G1 X107.892 Y76.889 E8.61523
G1 X109.337 Y76.675 E8.64433
G1 X109.739 Y76.685 F10800.000
G1 X107.884 Y77.579 F10800.000
G1 X116.807 Y86.502 E8.89595 F3000.000
G1 X116.719 Y85.797 E8.91011
G1 X108.421 Y77.499 E9.14411
G1 X108.958 Y77.420 E9.15494
G1 X116.631 Y85.093 E9.37131
G1 X116.543 Y84.388 E9.38547
G1 X109.495 Y77.340 E9.58422
G1 X109.995 Y77.223 E9.59446
G1 X116.456 Y83.684 E9.77663
G1 X116.368 Y82.979 E9.79079
G1 X110.075 Y76.686 E9.96824
G1 X110.154 Y76.149 E9.97907
G1 X116.280 Y82.275 E10.15180
G1 X116.192 Y81.570 E10.16596
G1 X110.233 Y75.612 E10.33398
G1 X110.313 Y75.075 E10.34480
G1 X116.097 Y80.859 E10.50792
G1 X115.989 Y80.134 E10.52254
G1 X110.392 Y74.538 E10.68036
G1 X110.472 Y74.000 E10.69118
G1 X115.881 Y79.409 E10.84370
G1 X115.772 Y78.684 E10.85832
G1 X110.551 Y73.463 E11.00554
G1 X111.034 Y73.330 E11.01553
G1 X115.664 Y77.959 E11.14608
G1 X115.555 Y77.234 E11.16069
G1 X111.535 Y73.214 E11.27406
G1 X112.098 Y73.161 E11.28534
G1 X115.447 Y76.509 E11.37976
G1 X115.338 Y75.784 E11.39438
G1 X112.662 Y73.107 E11.46985
G1 X113.548 Y73.377 E11.48833
G1 X115.230 Y75.059 E11.53574
G1 X114.923 Y74.136 E11.55513
G1 X115.224 Y74.436 E11.56360
G1 E9.56360 F1500.00000
G92 E0
G1 X106.943 Y77.255 F10800.000
G1 E2.00000 F1500.00000
G1 X116.895 Y87.206 E2.28063 F3000.000
G1 X116.983 Y87.911 E2.29478
G1 X106.059 Y76.986 E2.60284
G1 X105.201 Y76.746 E2.62060
G1 X117.051 Y88.595 E2.95475
G1 X117.056 Y89.217 E2.96714
G1 X104.473 Y76.634 E3.32196
G1 X103.745 Y76.522 E3.33665
G1 X117.043 Y89.820 E3.71164
G1 X116.976 Y90.370 E3.72269
G1 X103.031 Y76.425 E4.11593
G1 X102.370 Y76.381 E4.12913
G1 X116.910 Y90.920 E4.53912
G1 X116.843 Y91.471 E4.55017
G1 X101.710 Y76.337 E4.97692
G1 X101.049 Y76.293 E4.99013
G1 X116.777 Y92.021 E5.43363
G1 X116.710 Y92.571 E5.44468
G1 X100.428 Y76.289 E5.90382
G1 X99.822 Y76.299 E5.91590
G1 X116.591 Y93.068 E6.38875
G1 X116.158 Y93.252 E6.39812
G1 X99.217 Y76.310 E6.87586
G1 X98.611 Y76.321 E6.88794
G1 X115.726 Y93.436 E7.37057
G1 X115.294 Y93.621 E7.37994
G1 X98.005 Y76.332 E7.86746
G1 X97.399 Y76.343 E7.87954
G1 X114.861 Y93.805 E8.37195
G1 X114.429 Y93.989 E8.38132
G1 X96.794 Y76.354 E8.87861
G1 X96.188 Y76.365 E8.89069
G1 X113.997 Y94.173 E9.39288
G1 X113.564 Y94.358 E9.40225
G1 X95.582 Y76.375 E9.90933
G1 X94.970 Y76.380 E9.92153
G1 X113.132 Y94.542 E10.43367
G1 X112.700 Y94.726 E10.44304
G1 X94.325 Y76.351 E10.96120
G1 X93.679 Y76.322 E10.97408
G1 X112.268 Y94.910 E11.49825
G1 X111.835 Y95.095 E11.50762
G1 X93.034 Y76.293 E12.03781
G1 X92.481 Y76.357 E12.04891
G1 X111.461 Y95.337 E12.58414
G1 X111.111 Y95.603 E12.59291
G1 X92.015 Y76.507 E13.13140
G1 X91.654 Y76.763 E13.14022
G1 X110.760 Y95.869 E13.67899
G1 X110.409 Y96.135 E13.68776
G1 X90.765 Y76.491 E14.24170
G1 X89.796 Y76.139 F10800.000
G1 X110.058 Y96.400 E14.81306 F3000.000
G1 X109.707 Y96.666 E14.82184
G1 X85.277 Y72.236 E15.51074
G1 X84.895 Y72.471 E15.51968
G1 X109.356 Y96.932 E16.20946
G1 X109.005 Y97.198 E16.21824
G1 X84.521 Y72.713 E16.90868
G1 X84.322 Y73.131 E16.91790
G1 X108.794 Y97.603 E17.60798
G1 X108.637 Y98.063 E17.61767
G1 X84.152 Y73.577 E18.30813
G1 X83.982 Y74.024 E18.31765
G1 X108.480 Y98.522 E19.00849
G1 X108.324 Y98.982 E19.01817
G1 X83.811 Y74.470 E19.70939
G1 X83.644 Y74.920 E19.71895
G1 X108.167 Y99.442 E20.41046
G1 X108.010 Y99.902 E20.42014
G1 X83.566 Y75.458 E21.10943
G1 X83.488 Y75.997 E21.12028
G1 X107.853 Y100.362 E21.80734
G1 X107.696 Y100.821 E21.81703
G1 X83.410 Y76.535 E22.50188
G1 X83.353 Y77.095 E22.51309
G1 X107.540 Y101.281 E23.19513
G1 X107.383 Y101.741 E23.20481
G1 X83.409 Y77.767 E23.88086
G1 X83.451 Y78.425 E23.89402
G1 X107.226 Y102.201 E24.56446
G1 X107.069 Y102.661 E24.57415
G1 X83.324 Y78.915 E25.24375
G1 X83.197 Y79.405 E25.25384
G1 X106.913 Y103.121 E25.92259
G1 X106.756 Y103.580 E25.93228
G1 X83.070 Y79.895 E26.60018
G1 X82.943 Y80.384 E26.61027
G1 X106.548 Y103.989 E27.27590
G1 X106.311 Y104.368 E27.28482
G1 X82.817 Y80.874 E27.94733
G1 X82.690 Y81.364 E27.95742
G1 X106.079 Y104.753 E28.61697
G1 X105.963 Y105.254 E28.62721
G1 X82.563 Y81.854 E29.28707
G1 X82.436 Y82.344 E29.29715
G1 X105.847 Y105.754 E29.95730
G1 X105.730 Y106.254 E29.96754
G1 X82.309 Y82.833 E30.62799
G1 X82.183 Y83.323 E30.63808
G1 X105.614 Y106.755 E31.29882
G1 X105.498 Y107.255 E31.30906
G1 X82.056 Y83.813 E31.97010
G1 X81.929 Y84.303 E31.98019
G1 X105.382 Y107.755 E32.64152
G1 X105.259 Y108.249 E32.65167
G1 X81.802 Y84.793 E33.31311
G1 X81.675 Y85.282 E33.32320
G1 X105.132 Y108.739 E33.98464
G1 X105.005 Y109.228 E33.99472
G1 X81.549 Y85.772 E34.65615
G1 X81.422 Y86.262 E34.66624
G1 X104.878 Y109.718 E35.32767
G1 X104.751 Y110.207 E35.33775
G1 X81.295 Y86.752 E35.99917
G1 X81.168 Y87.242 E36.00926
G1 X104.624 Y110.697 E36.67067
G1 X104.497 Y111.186 E36.68075
G1 X81.041 Y87.731 E37.34216
G1 X80.968 Y88.274 E37.35309
G1 X104.370 Y111.676 E38.01299
G1 X104.242 Y112.166 E38.02307
G1 X86.969 Y94.892 E38.51018
G1 X87.269 Y95.808 E38.52941
G1 X104.115 Y112.655 E39.00447
G1 X103.988 Y113.145 E39.01455
G1 X87.667 Y96.823 E39.47481
G1 X88.064 Y97.837 F10800.000
G1 X103.861 Y113.634 E39.92028 F3000.000
G1 X103.719 Y114.108 E39.93015
G1 X88.462 Y98.851 E40.36038
G1 X88.860 Y99.866 F10800.000
G1 X103.554 Y114.560 E40.77475 F3000.000
G1 X103.389 Y115.012 E40.78434
G1 X89.257 Y100.880 E41.18284
G1 X89.655 Y101.894 F10800.000
G1 X103.225 Y115.464 E41.56549 F3000.000
G1 X103.060 Y115.916 E41.57508
G1 X90.053 Y102.909 E41.94186
G1 X90.319 Y103.791 E41.96024
G1 X102.895 Y116.368 E42.31488
G1 X102.730 Y116.819 E42.32447
G1 X90.380 Y104.469 E42.67273
G1 X90.442 Y105.147 E42.68631
G1 X102.566 Y117.271 E43.02819
G1 X102.401 Y117.723 E43.03778
G1 X90.503 Y105.825 E43.37327
G1 X90.565 Y106.504 E43.38685
G1 X102.220 Y118.158 E43.71550
G1 X101.991 Y118.546 E43.72448
G1 X90.626 Y107.182 E44.04495
G1 X90.688 Y107.860 E44.05853
G1 X101.763 Y118.934 E44.37082
G1 X101.548 Y119.336 E44.37991
G1 X90.754 Y108.543 E44.68428
G1 X90.868 Y109.273 E44.69902
G1 X101.375 Y119.780 E44.99530
G1 X101.202 Y120.224 E45.00479
G1 X90.982 Y110.004 E45.29297
G1 X91.096 Y110.735 E45.30772
G1 X101.029 Y120.667 E45.58780
G1 X100.856 Y121.111 E45.59730
G1 X91.210 Y111.465 E45.86929
G1 X91.325 Y112.196 E45.88404
G1 X100.683 Y121.555 E46.14794
G1 X100.510 Y121.998 E46.15743
G1 X91.439 Y112.927 E46.41324
G1 X91.621 Y113.725 E46.42957
G1 X100.337 Y122.442 E46.67537
G1 X100.164 Y122.886 E46.68487
G1 X91.829 Y114.551 E46.91990
G1 X92.038 Y115.376 E46.93688
G1 X99.991 Y123.329 E47.16115
G1 X99.818 Y123.773 E47.17064
G1 X92.247 Y116.201 E47.38415
G1 X92.456 Y117.027 E47.40113
G1 X99.645 Y124.216 E47.60388
G1 X99.473 Y124.660 E47.61337
G1 X92.664 Y117.852 E47.80536
G1 X92.873 Y118.677 E47.82233
G1 X99.300 Y125.104 E48.00355
G1 X99.127 Y125.547 E48.01305
G1 X93.082 Y119.503 E48.18351
G1 X93.291 Y120.328 E48.20048
G1 X98.954 Y125.991 E48.36018
G1 X98.781 Y126.435 E48.36967
G1 X93.499 Y121.153 E48.51860
G1 X93.708 Y121.979 E48.53558
G1 X98.608 Y126.878 E48.67375
G1 X98.429 Y127.316 E48.68318
G1 X93.917 Y122.804 E48.81041
G1 X94.125 Y123.629 E48.82739
G1 X98.249 Y127.753 E48.94367
G1 X98.070 Y128.190 E48.95309
G1 X94.334 Y124.455 E49.05843
G1 X94.543 Y125.280 E49.07540
G1 X97.890 Y128.627 E49.16979
G1 X97.386 Y128.740 E49.18009
G1 X94.752 Y126.105 E49.25438
G1 X94.960 Y126.931 E49.27135
G1 X96.401 Y128.371 E49.31197
