; generated by Slic3r 1.2.9 on 2018-04-28 at 17:25:47

; external perimeters extrusion width = 0.35mm
; perimeters extrusion width = 0.33mm
; infill extrusion width = 0.50mm
; solid infill extrusion width = 0.38mm
; top infill extrusion width = 0.22mm

M107
;This profile is designed specifically for LulzBot TAZ 6 3D Printer
;Basic slice data:
;Sliced at: {day} {date} {time}
;Layer height: {layer_height}
;Walls: {wall_thickness}
;Fill: {fill_density}
;Estimated Print time: {print_time}
;Filament used: {filament_amount}m {filament_weight}g
;Filament cost: {filament_cost}
;Variables to replace: print_bed_temperature, print_temperature, clean_temperature
G26                          ; clear potential 'probe fail' condition
G21                          ; set units to Millimeters
M107                         ; disable fans
G90                          ; absolute positioning
M82                          ; set extruder to absolute mode
G92 E0                       ; set extruder position to 0
M140 S85					 ; get bed heating up
G28 XY                       ; home X and Y
G1 X-19 Y258 F1000           ; move to safe homing position
M109 S161    				 ; soften filament for z homing, 70% of extrusion temperature is fine. default=170. 
G28 Z                        ; home Z
M104 S161    				 ; wipe temp, 70% of extrusion temperature is fine. default=160
G1 E-30 F100                 ; suck up XXmm of filament
G1 X-15 Y100 F3000           ; move above wiper pad
G1 Z1                        ; push nozzle into wiper
G1 X-17 Y95 F1000            ; slow wipe
G1 X-17 Y90 F1000            ; slow wipe
G1 X-17 Y85 F1000            ; slow wipe
G1 X-15 Y90 F1000            ; slow wipe
G1 X-17 Y80 F1000            ; slow wipe
G1 X-15 Y95 F1000            ; slow wipe
G1 X-17 Y75 F2000            ; fast wipe
G1 X-15 Y65 F2000            ; fast wipe
G1 X-17 Y70 F2000            ; fast wipe
G1 X-15 Y60 F2000            ; fast wipe
G1 X-17 Y55 F2000            ; fast wipe
G1 X-15 Y50 F2000            ; fast wipe
G1 X-17 Y40 F2000            ; fast wipe
G1 X-15 Y45 F2000            ; fast wipe
G1 X-17 Y35 F2000            ; fast wipe
G1 X-15 Y40 F2000            ; fast wipe
G1 X-17 Y70 F2000            ; fast wipe
G1 X-15 Y30 Z2 F2000         ; fast wipe
G1 X-17 Y35 F2000            ; fast wipe
G1 X-15 Y25 F2000            ; fast wipe
G1 X-17 Y30 F2000            ; fast wipe
G1 X-15 Y25 Z1.5 F1000       ; slow wipe
G1 X-17 Y23 F1000            ; slow wipe
G1 Z10                       ; raise extruder
M109 S161				     ; heat to probe temp. probe temp is 70% of extrusion temperature (print_temperature). default=160
G1 X-9 Y-9                   ; move above probe
M204 S100                    ; set accel for probing
G29                          ; probe sequence (for auto-leveling)
M204 S500                    ; set accel back to normal
G1 X0 Y0 Z15 F5000           ; get out the way
M400                         ; clear buffer
G4 S1                        ; pause
M117 Heating...              ; LCD status message
M140 S85					 ; get bed heating up
M109 S230				     ; set extruder temp and wait
M190 S85					 ; get bed temping up during first layer
G1 Z2 E0 F75                 ; extrude filament back into nozzle
M117 TAZ Printing...         ; LCD status message
G21 ; set units to millimeters
G90 ; use absolute coordinates
M82 ; use absolute distances for extrusion
G92 E0
G1 E-2.00000 F1500.00000
G92 E0
G1 Z0.300 F10800.000
G1 X75.783 Y76.330 F10800.000
G1 E2.00000 F1500.00000
G1 X76.793 Y75.339 E2.02819 F1800.000
G1 X77.843 Y74.391 E2.05637
G1 X78.708 Y73.668 E2.07884
G1 X79.827 Y72.802 E2.10702
G1 X80.980 Y71.983 E2.13521
G1 X82.365 Y71.091 E2.16802
G1 X83.588 Y70.380 E2.19621
G1 X84.839 Y69.720 E2.22439
G1 X85.856 Y69.232 E2.24686
G1 X87.154 Y68.668 E2.27505
G1 X88.474 Y68.159 E2.30323
G1 X90.088 Y67.620 E2.33714
G1 X91.449 Y67.234 E2.36532
G1 X92.545 Y66.968 E2.38779
G1 X93.883 Y66.694 E2.41500
G1 X95.566 Y66.428 E2.44895
G1 X97.019 Y66.269 E2.47807
G1 X98.144 Y66.188 E2.50053
G1 X99.504 Y66.140 E2.52764
G1 X100.874 Y66.148 E2.55495
G1 X102.320 Y66.216 E2.58379 F1800.000
G1 X103.740 Y66.344 E2.61218
G1 X105.142 Y66.529 E2.64037
G1 X106.536 Y66.773 E2.66855
G1 X107.870 Y67.064 E2.69575
G1 X109.234 Y67.420 E2.72383
G1 X110.586 Y67.834 E2.75202
G1 X111.921 Y68.304 E2.78020
G1 X113.234 Y68.830 E2.80839
G1 X114.525 Y69.410 E2.83658
G1 X115.790 Y70.043 E2.86476
G1 X117.027 Y70.729 E2.89295
G1 X118.235 Y71.466 E2.92114
G1 X119.601 Y72.386 E2.95395
G1 X120.737 Y73.229 E2.98213
G1 X121.837 Y74.118 E3.01032
G1 X122.899 Y75.053 E3.03851
G1 X123.922 Y76.031 E3.06669
G1 X124.902 Y77.052 E3.09488
G1 X125.839 Y78.112 E3.12306
G1 X126.730 Y79.210 E3.15125
G1 X127.572 Y80.340 E3.17932
G1 X128.342 Y81.468 E3.20653
G1 X129.092 Y82.668 E3.23471
G1 X129.790 Y83.898 E3.26290
G1 X130.441 Y85.166 E3.29129
G1 X131.047 Y86.480 E3.32013
G1 X131.569 Y87.748 E3.34743
G1 X132.035 Y89.026 E3.37455
G1 X132.467 Y90.378 E3.40281
G1 X132.853 Y91.792 E3.43202
G1 X133.166 Y93.165 E3.46008
G1 X133.415 Y94.508 E3.48729
G1 X133.615 Y95.909 E3.51548
G1 X133.757 Y97.317 E3.54366
G1 X133.840 Y98.729 E3.57185
G1 X133.863 Y100.144 E3.60004
G1 X133.828 Y101.558 E3.62822
G1 X133.733 Y102.970 E3.65641
G1 X133.579 Y104.376 E3.68460
G1 X133.368 Y105.769 E3.71267
G1 X133.108 Y107.110 E3.73987
G1 X132.780 Y108.494 E3.76822
G1 X132.383 Y109.901 E3.79734
G1 X132.035 Y110.974 E3.81981
G1 X131.569 Y112.252 E3.84692
G1 X131.047 Y113.520 E3.87423
G1 X130.441 Y114.834 E3.90306
G1 X129.790 Y116.102 E3.93146
G1 X129.092 Y117.332 E3.95964
G1 X128.342 Y118.532 E3.98783
G1 X127.572 Y119.660 E4.01503
G1 X126.730 Y120.790 E4.04310
G1 X125.839 Y121.888 E4.07129
G1 X124.902 Y122.948 E4.09948
G1 X123.922 Y123.969 E4.12766
G1 X122.899 Y124.947 E4.15585
G1 X121.837 Y125.882 E4.18404
G1 X120.737 Y126.771 E4.21222
G1 X119.601 Y127.614 E4.24041
G1 X118.235 Y128.534 E4.27322
G1 X117.020 Y129.275 E4.30157
G1 X115.741 Y129.982 E4.33069
G1 X114.485 Y130.609 E4.35865
G1 X113.235 Y131.170 E4.38596
G1 X111.970 Y131.676 E4.41309
G1 X110.586 Y132.166 E4.44233
G1 X109.234 Y132.580 E4.47052
G1 X107.865 Y132.937 E4.49871
G1 X106.764 Y133.181 E4.52117
G1 X105.421 Y133.427 E4.54837
G1 X104.025 Y133.623 E4.57645
G1 X102.617 Y133.762 E4.60464
G1 X101.205 Y133.842 E4.63282
G1 X99.790 Y133.863 E4.66101
G1 X98.376 Y133.824 E4.68920
G1 X96.964 Y133.727 E4.71738
G1 X95.558 Y133.571 E4.74557
G1 X94.160 Y133.356 E4.77375
G1 X92.819 Y133.093 E4.80096
G1 X91.449 Y132.766 E4.82903
G1 X90.039 Y132.365 E4.85824
G1 X88.692 Y131.919 E4.88650
G1 X87.154 Y131.332 E4.91930
G1 X85.904 Y130.790 E4.94644
G1 X84.583 Y130.151 E4.97568
G1 X83.337 Y129.480 E5.00387
G1 X82.120 Y128.758 E5.03205
G1 X80.940 Y127.990 E5.06010
G1 X79.827 Y127.198 E5.08733
G1 X78.708 Y126.332 E5.11552
G1 X77.627 Y125.420 E5.14370
G1 X76.584 Y124.463 E5.17189
G1 X75.583 Y123.464 E5.20007
G1 X74.624 Y122.423 E5.22826
G1 X73.710 Y121.344 E5.25645
G1 X72.841 Y120.227 E5.28463
G1 X72.024 Y119.080 E5.31269
G1 X71.277 Y117.936 E5.33991
G1 X70.549 Y116.713 E5.36827
G1 X69.860 Y115.436 E5.39718
G1 X69.260 Y114.205 E5.42445
G1 X68.697 Y112.917 E5.45246
G1 X68.200 Y111.638 E5.47979
G1 X67.725 Y110.250 E5.50903
G1 X67.325 Y108.893 E5.53721
G1 X66.982 Y107.520 E5.56540
G1 X66.750 Y106.417 E5.58786
G1 X66.519 Y105.071 E5.61506
G1 X66.336 Y103.674 E5.64314
G1 X66.212 Y102.264 E5.67133
G1 X66.147 Y100.851 E5.69951
G1 X66.141 Y99.436 E5.72770
G1 X66.194 Y98.022 E5.75589
G1 X66.307 Y96.612 E5.78407
G1 X66.477 Y95.208 E5.81226
G1 X66.707 Y93.812 E5.84045
G1 X66.983 Y92.474 E5.86765
G1 X67.325 Y91.107 E5.89572
G1 X67.725 Y89.750 E5.92391
G1 X68.181 Y88.411 E5.95210
G1 X68.697 Y87.084 E5.98046
G1 X69.260 Y85.795 E6.00849
G1 X69.880 Y84.524 E6.03665
G1 X70.553 Y83.279 E6.06484
G1 X71.277 Y82.064 E6.09303
G1 X72.024 Y80.920 E6.12024
G1 X72.841 Y79.773 E6.14830
G1 X73.742 Y78.617 E6.17751
G1 X74.626 Y77.575 E6.20472
G1 X75.746 Y76.368 E6.23754
G1 X76.089 Y76.640 F10800.000
G1 X77.086 Y75.661 E6.26536 F1800.000
G1 X78.123 Y74.726 E6.29318
G1 X78.987 Y74.002 E6.31565
G1 X80.092 Y73.147 E6.34347
G1 X81.231 Y72.339 E6.37130
G1 X82.586 Y71.467 E6.40340
G1 X83.793 Y70.764 E6.43122
G1 X85.028 Y70.113 E6.45904
G1 X86.045 Y69.625 E6.48151
G1 X87.325 Y69.068 E6.50933
G1 X88.882 Y68.475 E6.54251
G1 X90.208 Y68.038 E6.57034
G1 X91.552 Y67.657 E6.59816
G1 X92.648 Y67.391 E6.62063
G1 X93.969 Y67.121 E6.64748
G1 X95.616 Y66.861 E6.68071
G1 X97.050 Y66.703 E6.70945
G1 X98.175 Y66.623 E6.73192
G1 X99.517 Y66.576 E6.75868
G1 X100.870 Y66.584 E6.78563
G1 X102.298 Y66.651 E6.81412 F1800.000
G1 X103.699 Y66.777 E6.84213
G1 X105.083 Y66.961 E6.86996
G1 X106.459 Y67.202 E6.89778
G1 X107.775 Y67.489 E6.92462
G1 X109.122 Y67.841 E6.95235
G1 X110.457 Y68.250 E6.98017
G1 X111.774 Y68.714 E7.00799
G1 X113.071 Y69.233 E7.03582
G1 X114.344 Y69.806 E7.06364
G1 X115.593 Y70.432 E7.09147
G1 X116.815 Y71.109 E7.11929
G1 X118.007 Y71.837 E7.14711
G1 X119.343 Y72.737 E7.17921
G1 X120.465 Y73.569 E7.20704
G1 X121.551 Y74.447 E7.23486
G1 X122.600 Y75.369 E7.26268
G1 X123.609 Y76.335 E7.29051
G1 X124.577 Y77.341 E7.31833
G1 X125.502 Y78.388 E7.34615
G1 X126.382 Y79.472 E7.37398
G1 X127.213 Y80.587 E7.40170
G1 X127.974 Y81.700 E7.42855
G1 X128.714 Y82.885 E7.45637
G1 X129.404 Y84.099 E7.48419
G1 X130.046 Y85.350 E7.51221
G1 X130.645 Y86.648 E7.54069
G1 X131.161 Y87.899 E7.56764
G1 X131.621 Y89.161 E7.59441
G1 X132.047 Y90.495 E7.62230
G1 X132.429 Y91.890 E7.65113
G1 X132.738 Y93.246 E7.67884
G1 X132.984 Y94.572 E7.70570
G1 X133.182 Y95.954 E7.73352
G1 X133.322 Y97.344 E7.76135
G1 X133.404 Y98.738 E7.78917
G1 X133.428 Y100.134 E7.81699
G1 X133.393 Y101.531 E7.84482
G1 X133.300 Y102.924 E7.87264
G1 X133.148 Y104.313 E7.90046
G1 X132.940 Y105.688 E7.92818
G1 X132.684 Y107.011 E7.95503
G1 X132.361 Y108.378 E7.98301
G1 X131.969 Y109.767 E8.01176
G1 X131.621 Y110.839 E8.03422
G1 X131.161 Y112.101 E8.06099
G1 X130.645 Y113.352 E8.08794
G1 X130.046 Y114.650 E8.11642
G1 X129.404 Y115.901 E8.14444
G1 X128.714 Y117.115 E8.17226
G1 X127.974 Y118.300 E8.20008
G1 X127.213 Y119.413 E8.22693
G1 X126.382 Y120.528 E8.25465
G1 X125.502 Y121.612 E8.28247
G1 X124.577 Y122.659 E8.31030
G1 X123.609 Y123.665 E8.33812
G1 X122.600 Y124.631 E8.36594
G1 X121.551 Y125.553 E8.39377
G1 X120.465 Y126.431 E8.42159
G1 X119.343 Y127.263 E8.44942
G1 X118.007 Y128.163 E8.48152
G1 X116.808 Y128.895 E8.50950
G1 X115.545 Y129.593 E8.53824
G1 X114.305 Y130.212 E8.56586
G1 X113.071 Y130.766 E8.59281
G1 X111.823 Y131.266 E8.61959
G1 X110.457 Y131.750 E8.64846
G1 X109.122 Y132.159 E8.67628
G1 X107.771 Y132.512 E8.70410
G1 X106.669 Y132.756 E8.72657
G1 X105.344 Y132.998 E8.75342
G1 X103.966 Y133.192 E8.78114
G1 X102.576 Y133.328 E8.80896
G1 X101.182 Y133.407 E8.83678
G1 X99.785 Y133.427 E8.86461
G1 X98.389 Y133.389 E8.89243
G1 X96.996 Y133.293 E8.92025
G1 X95.608 Y133.138 E8.94808
G1 X94.228 Y132.926 E8.97590
G1 X92.905 Y132.666 E9.00276
G1 X91.552 Y132.343 E9.03047
G1 X90.160 Y131.946 E9.05930
G1 X88.831 Y131.506 E9.08719
G1 X87.326 Y130.932 E9.11929
G1 X86.092 Y130.397 E9.14608
G1 X84.788 Y129.766 E9.17494
G1 X83.558 Y129.105 E9.20277
G1 X82.357 Y128.392 E9.23059
G1 X81.191 Y127.634 E9.25828
G1 X80.092 Y126.853 E9.28516
G1 X78.987 Y125.998 E9.31298
G1 X77.920 Y125.098 E9.34080
G1 X76.891 Y124.153 E9.36863
G1 X75.902 Y123.167 E9.39645
G1 X74.955 Y122.140 E9.42427
G1 X74.053 Y121.075 E9.45210
G1 X73.195 Y119.973 E9.47992
G1 X72.387 Y118.840 E9.50763
G1 X71.650 Y117.711 E9.53449
G1 X70.931 Y116.505 E9.56247
G1 X70.251 Y115.243 E9.59103
G1 X69.658 Y114.029 E9.61794
G1 X69.102 Y112.758 E9.64559
G1 X68.612 Y111.496 E9.67257
G1 X68.142 Y110.125 E9.70143
G1 X67.747 Y108.785 E9.72925
G1 X67.409 Y107.431 E9.75708
G1 X67.177 Y106.327 E9.77954
G1 X66.948 Y104.999 E9.80638
G1 X66.769 Y103.619 E9.83411
G1 X66.646 Y102.228 E9.86193
G1 X66.582 Y100.833 E9.88976
G1 X66.577 Y99.436 E9.91758
G1 X66.630 Y98.041 E9.94540
G1 X66.741 Y96.648 E9.97323
G1 X66.910 Y95.262 E10.00105
G1 X67.137 Y93.884 E10.02887
G1 X67.410 Y92.564 E10.05572
G1 X67.747 Y91.215 E10.08344
G1 X68.142 Y89.875 E10.11126
G1 X68.593 Y88.553 E10.13909
G1 X69.102 Y87.243 E10.16709
G1 X69.658 Y85.971 E10.19475
G1 X70.271 Y84.717 E10.22256
G1 X70.935 Y83.488 E10.25038
G1 X71.650 Y82.289 E10.27821
G1 X72.387 Y81.160 E10.30507
G1 X73.195 Y80.027 E10.33277
G1 X74.085 Y78.886 E10.36160
G1 X74.957 Y77.858 E10.38846
G1 X76.053 Y76.677 E10.42055
G1 E8.42055 F1500.00000
G92 E0
G1 X118.272 Y118.851 F10800.000
G1 E2.00000 F1500.00000
G1 X117.362 Y119.697 E2.02476 F2400.000
G1 X116.507 Y120.419 E2.04705
G1 X115.588 Y121.128 E2.07018
G1 X114.709 Y121.750 E2.09163
G1 X113.769 Y122.357 E2.11392
G1 X112.804 Y122.923 E2.13621
G1 X111.816 Y123.448 E2.15851
G1 X110.806 Y123.930 E2.18080
G1 X109.777 Y124.368 E2.20309
G1 X108.730 Y124.763 E2.22538
G1 X107.707 Y125.100 E2.24683
G1 X106.631 Y125.405 E2.26912
G1 X105.542 Y125.665 E2.29141
G1 X104.444 Y125.878 E2.31370
G1 X103.337 Y126.044 E2.33599
G1 X102.225 Y126.162 E2.35828
G1 X101.108 Y126.233 E2.38058
G1 X99.989 Y126.257 E2.40287
G1 X98.871 Y126.232 E2.42516
G1 X97.754 Y126.160 E2.44745
G1 X96.684 Y126.046 E2.46890
G1 X95.577 Y125.881 E2.49119
G1 X94.478 Y125.669 E2.51348
G1 X93.390 Y125.411 E2.53577
G1 X92.313 Y125.106 E2.55806
G1 X91.250 Y124.756 E2.58035
G1 X90.204 Y124.361 E2.60264
G1 X89.175 Y123.921 E2.62494
G1 X88.165 Y123.438 E2.64723
G1 X87.178 Y122.913 E2.66952
G1 X86.249 Y122.368 E2.69097
G1 X85.308 Y121.762 E2.71326
G1 X84.361 Y121.090 E2.73639
G1 X83.477 Y120.405 E2.75868
G1 X82.654 Y119.711 E2.78013
G1 X81.861 Y118.982 E2.80158
G1 X81.039 Y118.163 E2.82471
G1 X80.282 Y117.338 E2.84700
G1 X79.561 Y116.482 E2.86929
G1 X78.878 Y115.597 E2.89158
G1 X78.256 Y114.718 E2.91304
G1 X77.649 Y113.778 E2.93533
G1 X77.082 Y112.813 E2.95762
G1 X76.557 Y111.825 E2.97991
G1 X76.074 Y110.816 E3.00220
G1 X75.635 Y109.787 E3.02449
G1 X75.241 Y108.740 E3.04678
G1 X74.891 Y107.677 E3.06907
G1 X74.587 Y106.600 E3.09136
G1 X74.329 Y105.511 E3.11365
G1 X74.124 Y104.454 E3.13511
G1 X73.958 Y103.348 E3.15739
G1 X73.839 Y102.235 E3.17969
G1 X73.767 Y101.119 E3.20198
G1 X73.743 Y100.000 E3.22427
G1 X73.767 Y98.881 E3.24656
G1 X73.839 Y97.765 E3.26885
G1 X73.958 Y96.652 E3.29114
G1 X74.117 Y95.587 E3.31259
G1 X74.329 Y94.489 E3.33488
G1 X74.587 Y93.400 E3.35717
G1 X74.891 Y92.323 E3.37947
G1 X75.255 Y91.221 E3.40260
G1 X75.652 Y90.175 E3.42488
G1 X76.074 Y89.184 E3.44634
G1 X76.539 Y88.213 E3.46779
G1 X77.082 Y87.187 E3.49091
G1 X77.649 Y86.222 E3.51321
G1 X78.256 Y85.282 E3.53550
G1 X78.878 Y84.403 E3.55695
G1 X79.561 Y83.518 E3.57924
G1 X80.282 Y82.662 E3.60153
G1 X81.039 Y81.837 E3.62382
G1 X81.830 Y81.046 E3.64611
G1 X82.654 Y80.289 E3.66841
G1 X83.509 Y79.568 E3.69070
G1 X84.395 Y78.884 E3.71299
G1 X85.309 Y78.238 E3.73528
G1 X86.249 Y77.632 E3.75757
G1 X87.178 Y77.087 E3.77902
G1 X88.165 Y76.562 E3.80131
G1 X89.175 Y76.079 E3.82360
G1 X90.204 Y75.639 E3.84589
G1 X91.250 Y75.244 E3.86818
G1 X92.313 Y74.894 E3.89047
G1 X93.390 Y74.589 E3.91277
G1 X94.437 Y74.340 E3.93422
G1 X95.577 Y74.119 E3.95734
G1 X96.684 Y73.954 E3.97964
G1 X97.754 Y73.840 E4.00109
G1 X98.913 Y73.766 E4.02422
G1 X99.989 Y73.743 E4.04567 F2400.000
G1 X101.108 Y73.767 E4.06796
G1 X102.225 Y73.838 E4.09025
G1 X103.337 Y73.956 E4.11254
G1 X104.444 Y74.122 E4.13483
G1 X105.542 Y74.335 E4.15713
G1 X106.631 Y74.595 E4.17942
G1 X107.707 Y74.900 E4.20171
G1 X108.730 Y75.237 E4.22316
G1 X109.777 Y75.632 E4.24545
G1 X110.806 Y76.070 E4.26774
G1 X111.816 Y76.552 E4.29003
G1 X112.804 Y77.077 E4.31232
G1 X113.769 Y77.643 E4.33461
G1 X114.709 Y78.250 E4.35690
G1 X115.622 Y78.897 E4.37920
G1 X116.507 Y79.581 E4.40149
G1 X117.362 Y80.303 E4.42378
G1 X118.155 Y81.032 E4.44523
G1 X118.947 Y81.822 E4.46752
G1 X119.731 Y82.678 E4.49065
G1 X120.451 Y83.534 E4.51294
G1 X121.110 Y84.386 E4.53439
G1 X121.732 Y85.265 E4.55584
G1 X122.362 Y86.240 E4.57897
G1 X122.928 Y87.205 E4.60126
G1 X123.452 Y88.194 E4.62355
G1 X123.934 Y89.204 E4.64584
G1 X124.357 Y90.194 E4.66730
G1 X124.752 Y91.241 E4.68958
G1 X125.103 Y92.303 E4.71188
G1 X125.408 Y93.379 E4.73417
