; generated by Slic3r 1.2.9 on 2018-04-27 at 17:15:47

; external perimeters extrusion width = 0.35mm
; perimeters extrusion width = 0.33mm
; infill extrusion width = 0.50mm
; solid infill extrusion width = 0.38mm
; top infill extrusion width = 0.22mm

M107
;This profile is designed specifically for LulzBot TAZ 6 3D Printer
;Basic slice data:
;Sliced at: {day} {date} {time}
;Layer height: {layer_height}
;Walls: {wall_thickness}
;Fill: {fill_density}
;Estimated Print time: {print_time}
;Filament used: {filament_amount}m {filament_weight}g
;Filament cost: {filament_cost}
;Variables to replace: print_bed_temperature, print_temperature, clean_temperature
G26                          ; clear potential 'probe fail' condition
G21                          ; set units to Millimeters
M107                         ; disable fans
G90                          ; absolute positioning
M82                          ; set extruder to absolute mode
G92 E0                       ; set extruder position to 0
M140 S85					 ; get bed heating up
G28 XY                       ; home X and Y
G1 X-19 Y258 F1000           ; move to safe homing position
M109 S161    				 ; soften filament for z homing, 70% of extrusion temperature is fine. default=170. 
G28 Z                        ; home Z
M104 S161    				 ; wipe temp, 70% of extrusion temperature is fine. default=160
G1 E-30 F100                 ; suck up XXmm of filament
G1 X-15 Y100 F3000           ; move above wiper pad
G1 Z1                        ; push nozzle into wiper
G1 X-17 Y95 F1000            ; slow wipe
G1 X-17 Y90 F1000            ; slow wipe
G1 X-17 Y85 F1000            ; slow wipe
G1 X-15 Y90 F1000            ; slow wipe
G1 X-17 Y80 F1000            ; slow wipe
G1 X-15 Y95 F1000            ; slow wipe
G1 X-17 Y75 F2000            ; fast wipe
G1 X-15 Y65 F2000            ; fast wipe
G1 X-17 Y70 F2000            ; fast wipe
G1 X-15 Y60 F2000            ; fast wipe
G1 X-17 Y55 F2000            ; fast wipe
G1 X-15 Y50 F2000            ; fast wipe
G1 X-17 Y40 F2000            ; fast wipe
G1 X-15 Y45 F2000            ; fast wipe
G1 X-17 Y35 F2000            ; fast wipe
G1 X-15 Y40 F2000            ; fast wipe
G1 X-17 Y70 F2000            ; fast wipe
G1 X-15 Y30 Z2 F2000         ; fast wipe
G1 X-17 Y35 F2000            ; fast wipe
G1 X-15 Y25 F2000            ; fast wipe
G1 X-17 Y30 F2000            ; fast wipe
G1 X-15 Y25 Z1.5 F1000       ; slow wipe
G1 X-17 Y23 F1000            ; slow wipe
G1 Z10                       ; raise extruder
M109 S161				     ; heat to probe temp. probe temp is 70% of extrusion temperature (print_temperature). default=160
G1 X-9 Y-9                   ; move above probe
M204 S100                    ; set accel for probing
G29                          ; probe sequence (for auto-leveling)
M204 S500                    ; set accel back to normal
G1 X0 Y0 Z15 F5000           ; get out the way
M400                         ; clear buffer
G4 S1                        ; pause
M117 Heating...              ; LCD status message
M140 S85					 ; get bed heating up
M109 S230				     ; set extruder temp and wait
M190 S85					 ; get bed temping up during first layer
G1 Z2 E0 F75                 ; extrude filament back into nozzle
M117 TAZ Printing...         ; LCD status message
G21 ; set units to millimeters
G90 ; use absolute coordinates
M82 ; use absolute distances for extrusion
G92 E0
G1 E-2.00000 F1500.00000
G92 E0
G1 Z0.300 F10800.000
G1 X94.544 Y94.383 F10800.000
G1 E2.00000 F1500.00000
G1 X95.214 Y93.825 E2.01736 F300.000
G1 X96.879 Y92.802 E2.05630
G1 X97.269 Y92.632 E2.06479
G1 X99.540 Y92.082 E2.11132
G1 X102.731 Y92.632 E2.17583
G1 X103.121 Y92.802 E2.18432 F300.000
G1 X104.786 Y93.825 E2.22325
G1 X105.456 Y94.383 E2.24062
G1 X106.972 Y96.161 E2.28716
G1 X107.804 Y98.343 E2.33370
G1 X107.914 Y100.163 E2.37001
G1 X107.657 Y101.617 E2.39944
G1 X107.468 Y102.268 E2.41294
G1 X107.158 Y103.132 E2.43121
G1 X106.580 Y104.266 E2.45658
G1 X106.475 Y104.431 E2.46047
G1 X105.851 Y105.269 E2.48129
G1 X104.821 Y106.256 E2.50971
G1 X104.084 Y106.773 E2.52763
G1 X103.925 Y106.869 E2.53135
G1 X102.434 Y107.549 E2.56399
G1 X102.314 Y107.587 E2.56650
G1 X100.910 Y107.877 E2.59506
G1 X100.679 Y107.900 E2.59968
G1 X99.321 Y107.900 E2.62675
G1 X99.090 Y107.877 E2.63138
G1 X97.566 Y107.549 E2.66243
G1 X96.075 Y106.869 E2.69507
G1 X95.179 Y106.256 E2.71671
G1 X94.213 Y105.343 E2.74318
G1 X93.525 Y104.431 E2.76595
G1 X93.420 Y104.266 E2.76984
G1 X92.842 Y103.132 E2.79521
G1 X92.532 Y102.268 E2.81348
G1 X92.343 Y101.617 E2.82698
G1 X92.089 Y100.200 E2.85568
G1 X92.315 Y97.838 E2.90294
G1 X93.310 Y95.725 E2.94948
G1 X94.508 Y94.422 E2.98475
G1 X94.823 Y94.718 F10800.000
G1 X95.493 Y94.160 E3.00211 F300.000
G1 X97.052 Y93.201 E3.03858
G1 X97.443 Y93.032 E3.04707
G1 X99.642 Y92.512 E3.09209
G1 X102.557 Y93.032 E3.15109
G1 X102.948 Y93.201 E3.15958 F300.000
G1 X104.507 Y94.160 E3.19604
G1 X105.177 Y94.718 E3.21341
G1 X106.634 Y96.446 E3.25844
G1 X107.403 Y98.572 E3.30347
G1 X107.479 Y100.131 E3.33458
G1 X107.238 Y101.496 E3.36219
G1 X107.049 Y102.147 E3.37568
G1 X106.753 Y102.971 E3.39313
G1 X106.212 Y104.033 E3.41689
G1 X105.522 Y104.983 E3.44027
G1 X104.554 Y105.912 E3.46700
G1 X103.858 Y106.400 E3.48395
G1 X103.699 Y106.497 E3.48766
G1 X102.302 Y107.134 E3.51824
G1 X102.182 Y107.172 E3.52074
G1 X100.867 Y107.443 E3.54749
G1 X100.636 Y107.466 E3.55212
G1 X99.364 Y107.466 E3.57747
G1 X99.133 Y107.443 E3.58209
G1 X97.698 Y107.134 E3.61134
G1 X96.301 Y106.497 E3.64191
G1 X95.446 Y105.912 E3.66256
G1 X94.542 Y105.057 E3.68736
G1 X93.893 Y104.198 E3.70880
G1 X93.788 Y104.033 E3.71269
G1 X93.247 Y102.971 E3.73645
G1 X92.951 Y102.147 E3.75390
G1 X92.762 Y101.496 E3.76739
G1 X92.523 Y100.168 E3.79427
G1 X92.755 Y97.883 E3.84002
G1 X93.752 Y95.855 E3.88505
G1 X94.787 Y94.756 E3.91512
G1 E1.91512 F1500.00000
G92 E0
G1 X100.373 Y100.317 F10800.000
G1 E2.00000 F1500.00000
G1 X100.285 Y100.491 E2.00389 F300.000
G1 X99.956 Y100.431 E2.01055
G1 X99.669 Y100.592 E2.01711
G1 X99.532 Y100.405 E2.02171
G1 X100.000 Y99.967 E2.03449
G1 X100.335 Y100.281 E2.04363
G1 X100.200 Y100.408 F10800.000
G1 X100.982 Y99.806 F10800.000
G1 X100.702 Y99.604 E2.05050 F352.818
G1 X100.558 Y99.528 E2.05375
G1 X100.373 Y99.461 E2.05766
G1 X100.167 Y99.514 E2.06190
G1 X100.001 Y99.382 E2.06613
G1 X99.833 Y99.514 E2.07038
G1 X99.851 Y99.641 E2.07294
G1 X99.999 Y99.778 E2.07694
G1 X100.149 Y99.641 E2.08099
G1 X100.196 Y99.216 E2.08950
G1 X100.767 Y99.566 F10800.000
G1 X99.800 Y99.512 E2.10879 F352.818
G1 X99.627 Y99.461 E2.11239
G1 X99.334 Y99.582 E2.11871
G1 X99.018 Y99.806 E2.12642
G1 E0.12642 F1500.00000
G92 E0
M400                           ; wait for moves to finish
M104 S0                        ; hotend off
M107                           ; fans off
G91                            ; relative positioning
G1 E-1 F300                    ; retract the filament a bit before lifting the nozzle, to release some of the pressure
G1 Z+20 E-5 X-20 Y-20 F3000    ; move Z up a bit and retract filament even more
M117 Cooling please wait       ; progress indicator message
G90                            ; absolute positioning
G1 Y0 F3000                    ; move to cooling position
M190 S50    				   ; set bed to cool off. Update with filament-specific recommended part removal temperature. Default=50
G1 Y280 F3000                  ; present finished print
M84                            ; steppers off
G90                            ; absolute positioning
M117 Print complete            ; progress indicator message
; filament used = 2.0mm (0.0cm3)

; avoid_crossing_perimeters = 1
; bed_shape = 0x0,298x0,298x275,0x275
; bed_temperature = 0
; before_layer_gcode = 
; bridge_acceleration = 0
; bridge_fan_speed = 0
; brim_width = 0
; complete_objects = 0
; cooling = 1
; default_acceleration = 0
; disable_fan_first_layers = 1
; duplicate_distance = 6
; end_gcode = M400                           ; wait for moves to finish\nM104 S0                        ; hotend off\nM107                           ; fans off\nG91                            ; relative positioning\nG1 E-1 F300                    ; retract the filament a bit before lifting the nozzle, to release some of the pressure\nG1 Z+20 E-5 X-20 Y-20 F3000    ; move Z up a bit and retract filament even more\nM117 Cooling please wait       ; progress indicator message\nG90                            ; absolute positioning\nG1 Y0 F3000                    ; move to cooling position\nM190 S50    				   ; set bed to cool off. Update with filament-specific recommended part removal temperature. Default=50\nG1 Y280 F3000                  ; present finished print\nM84                            ; steppers off\nG90                            ; absolute positioning\nM117 Print complete            ; progress indicator message
; extruder_clearance_height = 20
; extruder_clearance_radius = 20
; extruder_offset = 0x0
; extrusion_axis = E
; extrusion_multiplier = 1
; fan_always_on = 0
; fan_below_layer_time = 60
; filament_colour = #FFFFFF
; filament_diameter = 2.89
; first_layer_acceleration = 0
; first_layer_bed_temperature = 0
; first_layer_extrusion_width = 0.5
; first_layer_speed = 50%
; first_layer_temperature = 0
; gcode_arcs = 0
; gcode_comments = 0
; gcode_flavor = reprap
; infill_acceleration = 0
; infill_first = 0
; layer_gcode = 
; max_fan_speed = 0
; max_print_speed = 80
; max_volumetric_speed = 0
; min_fan_speed = 0
; min_print_speed = 5
; min_skirt_length = 0
; notes = 
; nozzle_diameter = 0.35
; only_retract_when_crossing_perimeters = 0
; ooze_prevention = 0
; output_filename_format = [input_filename_base].gcode
; perimeter_acceleration = 0
; post_process = 
; pressure_advance = 0
; resolution = 0.01
; retract_before_travel = 2
; retract_layer_change = 1
; retract_length = 2
; retract_length_toolchange = 10
; retract_lift = 0
; retract_restart_extra = 0
; retract_restart_extra_toolchange = 0
; retract_speed = 25
; skirt_distance = 6
; skirt_height = 1
; skirts = 2
; slowdown_below_layer_time = 23
; spiral_vase = 0
; standby_temperature_delta = -5
; start_gcode = ;This profile is designed specifically for LulzBot TAZ 6 3D Printer\n;Basic slice data:\n;Sliced at: {day} {date} {time}\n;Layer height: {layer_height}\n;Walls: {wall_thickness}\n;Fill: {fill_density}\n;Estimated Print time: {print_time}\n;Filament used: {filament_amount}m {filament_weight}g\n;Filament cost: {filament_cost}\n;Variables to replace: print_bed_temperature, print_temperature, clean_temperature\nG26                          ; clear potential 'probe fail' condition\nG21                          ; set units to Millimeters\nM107                         ; disable fans\nG90                          ; absolute positioning\nM82                          ; set extruder to absolute mode\nG92 E0                       ; set extruder position to 0\nM140 S85					 ; get bed heating up\nG28 XY                       ; home X and Y\nG1 X-19 Y258 F1000           ; move to safe homing position\nM109 S161    				 ; soften filament for z homing, 70% of extrusion temperature is fine. default=170. \nG28 Z                        ; home Z\nM104 S161    				 ; wipe temp, 70% of extrusion temperature is fine. default=160\nG1 E-30 F100                 ; suck up XXmm of filament\nG1 X-15 Y100 F3000           ; move above wiper pad\nG1 Z1                        ; push nozzle into wiper\nG1 X-17 Y95 F1000            ; slow wipe\nG1 X-17 Y90 F1000            ; slow wipe\nG1 X-17 Y85 F1000            ; slow wipe\nG1 X-15 Y90 F1000            ; slow wipe\nG1 X-17 Y80 F1000            ; slow wipe\nG1 X-15 Y95 F1000            ; slow wipe\nG1 X-17 Y75 F2000            ; fast wipe\nG1 X-15 Y65 F2000            ; fast wipe\nG1 X-17 Y70 F2000            ; fast wipe\nG1 X-15 Y60 F2000            ; fast wipe\nG1 X-17 Y55 F2000            ; fast wipe\nG1 X-15 Y50 F2000            ; fast wipe\nG1 X-17 Y40 F2000            ; fast wipe\nG1 X-15 Y45 F2000            ; fast wipe\nG1 X-17 Y35 F2000            ; fast wipe\nG1 X-15 Y40 F2000            ; fast wipe\nG1 X-17 Y70 F2000            ; fast wipe\nG1 X-15 Y30 Z2 F2000         ; fast wipe\nG1 X-17 Y35 F2000            ; fast wipe\nG1 X-15 Y25 F2000            ; fast wipe\nG1 X-17 Y30 F2000            ; fast wipe\nG1 X-15 Y25 Z1.5 F1000       ; slow wipe\nG1 X-17 Y23 F1000            ; slow wipe\nG1 Z10                       ; raise extruder\nM109 S161				     ; heat to probe temp. probe temp is 70% of extrusion temperature (print_temperature). default=160\nG1 X-9 Y-9                   ; move above probe\nM204 S100                    ; set accel for probing\nG29                          ; probe sequence (for auto-leveling)\nM204 S500                    ; set accel back to normal\nG1 X0 Y0 Z15 F5000           ; get out the way\nM400                         ; clear buffer\nG4 S1                        ; pause\nM117 Heating...              ; LCD status message\nM140 S85					 ; get bed heating up\nM109 S230				     ; set extruder temp and wait\nM190 S85					 ; get bed temping up during first layer\nG1 Z2 E0 F75                 ; extrude filament back into nozzle\nM117 TAZ Printing...         ; LCD status message
; temperature = 0
; threads = 2
; toolchange_gcode = 
; travel_speed = 180
; use_firmware_retraction = 0
; use_relative_e_distances = 0
; use_volumetric_e = 0
; vibration_limit = 0
; wipe = 0
; z_offset = 0
; dont_support_bridges = 1
; extrusion_width = 0.35
; first_layer_height = 0.3
; infill_only_where_needed = 0
; interface_shells = 0
; layer_height = 0.22
; raft_layers = 0
; seam_position = aligned
; support_material = 0
; support_material_angle = 0
; support_material_contact_distance = 0.2
; support_material_enforce_layers = 0
; support_material_extruder = 1
; support_material_extrusion_width = 0
; support_material_interface_extruder = 1
; support_material_interface_layers = 3
; support_material_interface_spacing = 0
; support_material_interface_speed = 100%
; support_material_pattern = honeycomb
; support_material_spacing = 5
; support_material_speed = 60
; support_material_threshold = 0
; xy_size_compensation = 0
; bottom_solid_layers = 3
; bridge_flow_ratio = 1.01
; bridge_speed = 40
; external_fill_pattern = rectilinear
; external_perimeter_extrusion_width = 0
; external_perimeter_speed = 80
; external_perimeters_first = 0
; extra_perimeters = 0
; fill_angle = 45
; fill_density = 50%
; fill_pattern = line
; gap_fill_speed = 40
; infill_every_layers = 1
; infill_extruder = 1
; infill_extrusion_width = 0.5
; infill_overlap = 15%
; infill_speed = 115
; overhangs = 1
; perimeter_extruder = 1
; perimeter_extrusion_width = 0.33
; perimeter_speed = 120
; perimeters = 2
; small_perimeter_speed = 60
; solid_infill_below_area = 70
; solid_infill_every_layers = 0
; solid_infill_extruder = 1
; solid_infill_extrusion_width = 0.38
; solid_infill_speed = 100
; thin_walls = 1
; top_infill_extrusion_width = 0.22
; top_solid_infill_speed = 70
; top_solid_layers = 3
